X:95
M:6/8
L:1/8
K:A
|: efe efe | ded ded | cdc cdc | BcB BcB | efe efe | ded ded | cdc cdc | {c}(B3 B3) |

